Numix-GalliumOS/64/devices/ac-adapter.svg

<?xml version="1.0" encoding="UTF-8" standalone="no"?>
<svg
   xmlns:dc="http://purl.org/dc/elements/1.1/"
   xmlns:cc="http://creativecommons.org/ns#"
   xmlns:rdf="http://www.w3.org/1999/02/22-rdf-syntax-ns#"
   xmlns:svg="http://www.w3.org/2000/svg"
   xmlns="http://www.w3.org/2000/svg"
   xmlns:sodipodi="http://sodipodi.sourceforge.net/DTD/sodipodi-0.dtd"
   xmlns:inkscape="http://www.inkscape.org/namespaces/inkscape"
   width="64"
   height="64"
   viewBox="0 0 64 64"
   id="svg2"
   version="1.1"
   inkscape:version="0.91 r"
   sodipodi:docname="ac-adapter.svg">
  <metadata
     id="metadata10">
    <rdf:RDF>
      <cc:Work
         rdf:about="">
        <dc:format>image/svg+xml</dc:format>
        <dc:type
           rdf:resource="http://purl.org/dc/dcmitype/StillImage" />
        <dc:title></dc:title>
      </cc:Work>
    </rdf:RDF>
  </metadata>
  <defs
     id="defs8" />
  <sodipodi:namedview
     pagecolor="#ffffff"
     bordercolor="#666666"
     borderopacity="1"
     objecttolerance="10"
     gridtolerance="10"
     guidetolerance="10"
     inkscape:pageopacity="0"
     inkscape:pageshadow="2"
     inkscape:window-width="1920"
     inkscape:window-height="1056"
     id="namedview6"
     showgrid="true"
     inkscape:zoom="3.6875"
     inkscape:cx="59.711795"
     inkscape:cy="3.6972811"
     inkscape:window-x="0"
     inkscape:window-y="24"
     inkscape:window-maximized="1"
     inkscape:current-layer="svg2">
    <inkscape:grid
       type="xygrid"
       id="grid3010" />
  </sodipodi:namedview>
  <path
     id="path4164"
     style="fill:#909ea9;fill-opacity:1"
     d="m 28.999756,50 0,8.621458 C 28.999756,59.388717 28.392476,60 27.630243,60 l -2.260969,0 c -0.762233,0 -1.369513,-0.611283 -1.369513,-1.378542 l 0,-8.621458 z m 10.999996,0 0,8.621458 C 39.999752,59.388717 39.392472,60 38.630241,60 l -2.262486,0 c -0.762231,0 -1.369511,-0.611283 -1.369511,-1.378542 l 0,-8.621458 z"
     inkscape:connector-curvature="0"
     sodipodi:nodetypes="csssscccsssscc" />
  <path
     id="path4164-3"
     style="fill:#20262b;fill-opacity:1"
     d="m 4.6758,4.5454839 c 0.4430784,0.016 0.857651,0.1464981 1.1983266,0.3254878 0.4542182,0.238661 0.7767429,0.5764567 0.9130071,1.0147617 C 7.38973,7.824014 8.5947166,9.614399 10.172867,10.84465 c 2.291191,1.911413 5.700675,2.594096 9.2442,3.52294 1.785641,0.432885 3.64698,0.933115 5.51609,1.684883 1.876952,0.746429 3.714776,1.816369 5.30686,3.331476 1.770576,1.715647 3.051933,3.919359 3.652028,6.318316 0.196337,0.789834 0.31232,1.489718 0.361399,2.297735 l 5.334517,0 c 3.551812,0 6.585643,2.882341 6.410078,6.453255 l 0,13.546952 -27.998077,0 0,-13.546952 C 17.999962,30.878028 20.858228,28 24.410038,28 l 5.335432,0 C 29.704964,27.562054 29.661284,27.216758 29.555252,26.79361 29.166717,25.227979 28.315681,23.755802 27.158603,22.638839 26.130917,21.619222 24.751699,20.849671 23.259301,20.22639 21.758967,19.608411 20.096605,19.185989 18.351885,18.752118 14.835148,17.947563 10.876384,16.969853 7.4338355,14.386737 5.1096224,12.558029 3.3959123,10.039374 2.5264174,7.2259803 2.3298,6.5897884 2.4331386,5.9288089 2.7546705,5.4453644 3.0762064,4.9619212 3.6057396,4.6660104 4.2192878,4.5837754 4.3726858,4.5632154 4.5280958,4.5401624 4.6758,4.5454839 Z"
     inkscape:connector-curvature="0"
     sodipodi:nodetypes="cssccccccssccssccccccsscc" />
</svg>

<svg xmlns="http://www.w3.org/2000/svg" viewBox="0 0 64 64">
 <path d="m 29 50 0 8.621 c 0 0.767 -0.607 1.379 -1.37 1.379 l -2.261 0 c -0.762 0 -1.37 -0.611 -1.37 -1.379 l 0 -8.621 z m 11 0 0 8.621 c 0 0.767 -0.607 1.379 -1.37 1.379 l -2.262 0 c -0.762 0 -1.37 -0.611 -1.37 -1.379 l 0 -8.621 z" style="fill:#909ea9;fill-opacity:1"/>
 <path d="m 4.676 4.545 c 0.443 0.016 0.858 0.146 1.198 0.325 0.454 0.239 0.777 0.576 0.913 1.015 c 0.603 1.938 1.808 3.729 3.386 4.959 c 2.291 1.911 5.701 2.594 9.244 3.523 1.786 0.433 3.647 0.933 5.516 1.685 1.877 0.746 3.715 1.816 5.307 3.331 1.771 1.716 3.052 3.919 3.652 6.318 0.196 0.79 0.312 1.49 0.361 2.298 l 5.335 0 c 3.552 0 6.586 2.882 6.41 6.453 l 0 13.547 -27.998 0 0 -13.547 c 0 -3.575 2.858 -6.453 6.41 -6.453 l 5.335 0 c -0.041 -0.438 -0.084 -0.783 -0.19 -1.206 -0.389 -1.566 -1.24 -3.038 -2.397 -4.155 -1.028 -1.02 -2.407 -1.789 -3.899 -2.412 -1.5 -0.618 -3.163 -1.04 -4.907 -1.474 -3.517 -0.805 -7.476 -1.782 -10.918 -4.365 -2.324 -1.829 -4.04 -4.347 -4.907 -7.161 -0.197 -0.636 -0.093 -1.297 0.228 -1.781 0.322 -0.483 0.851 -0.779 1.465 -0.862 0.153 -0.021 0.309 -0.044 0.457 -0.038" style="fill:#20262b;fill-opacity:1"/>
</svg>
